la/baseball-ball-solid.svg

<svg xmlns="http://www.w3.org/2000/svg" viewBox="0 0 32 32" height="1em" width="1em">
  <path d="M 16 3 C 8.832 3 3 8.832 3 16 C 3 23.168 8.832 29 16 29 C 23.168 29 29 23.168 29 16 C 29 8.832 23.168 3 16 3 z M 16 5 C 19.090538 5 21.882568 6.2863093 23.882812 8.3457031 C 22.846318 9.0948613 21.978635 10.05256 21.320312 11.179688 L 23.039062 12.189453 C 23.567883 11.281478 24.287067 10.503928 25.144531 9.8945312 C 26.315436 11.642539 27 13.74284 27 16 C 27 18.25716 26.315436 20.357461 25.144531 22.105469 C 24.277059 21.486086 23.548578 20.697486 23.009766 19.769531 L 21.279297 20.769531 C 21.937657 21.906699 22.826289 22.885169 23.882812 23.654297 C 21.882568 25.713691 19.090538 27 16 27 C 12.909462 27 10.117432 25.713691 8.1171875 23.654297 C 9.1737105 22.885169 10.062343 21.906699 10.720703 20.769531 L 8.9902344 19.769531 C 8.4514217 20.697486 7.7229413 21.486086 6.8554688 22.105469 C 5.6845638 20.357461 5 18.25716 5 16 C 5 13.74284 5.6845638 11.642539 6.8554688 9.8945312 C 7.7129327 10.503928 8.4321171 11.281478 8.9609375 12.189453 L 10.679688 11.179688 C 10.021365 10.05256 9.1536816 9.0948613 8.1171875 8.3457031 C 10.117432 6.2863093 12.909462 5 16 5 z M 11.580078 13.210938 L 9.6699219 13.800781 C 9.8899219 14.520781 10 15.26 10 16 C 10 16.73 9.8994531 17.450391 9.6894531 18.150391 L 11.599609 18.720703 C 11.869609 17.840703 12 16.92 12 16 C 12 15.06 11.860078 14.120937 11.580078 13.210938 z M 20.419922 13.210938 C 20.139922 14.120937 20 15.06 20 16 C 20 16.92 20.130391 17.840703 20.400391 18.720703 L 22.310547 18.150391 C 22.100547 17.450391 22 16.73 22 16 C 22 15.26 22.110078 14.520781 22.330078 13.800781 L 20.419922 13.210938 z"/>
</svg>

<svg xmlns="http://www.w3.org/2000/svg" viewBox="0 0 32 32" height="1em" width="1em">
  <path d="M16 3C8.832 3 3 8.832 3 16s5.832 13 13 13 13-5.832 13-13S23.168 3 16 3zm0 2a10.96 10.96 0 0 1 7.883 3.346 9.212 9.212 0 0 0-2.563 2.834l1.72 1.01a7.365 7.365 0 0 1 2.105-2.295A10.936 10.936 0 0 1 27 16c0 2.257-.685 4.357-1.855 6.105a7.49 7.49 0 0 1-2.135-2.335l-1.73 1a9.385 9.385 0 0 0 2.603 2.884A10.96 10.96 0 0 1 16 27a10.96 10.96 0 0 1-7.883-3.346 9.385 9.385 0 0 0 2.604-2.884l-1.73-1a7.49 7.49 0 0 1-2.136 2.335A10.936 10.936 0 0 1 5 16c0-2.257.685-4.357 1.855-6.105a7.365 7.365 0 0 1 2.106 2.294l1.719-1.01a9.212 9.212 0 0 0-2.563-2.833A10.96 10.96 0 0 1 16 5zm-4.42 8.21-1.91.59c.22.72.33 1.46.33 2.2 0 .73-.1 1.45-.31 2.15l1.91.57a9.478 9.478 0 0 0-.02-5.51zm8.84 0a9.478 9.478 0 0 0-.02 5.51l1.91-.57c-.21-.7-.31-1.42-.31-2.15 0-.74.11-1.48.33-2.2l-1.91-.59z"/>
</svg>
